X: 31
T: Se je suis despourveu / Veni veni
N: Derived from Ano3037-Se_je_suis_despourveu__Veni_veni--Escorial_B.krn
C: Anonymous
%%abc-version 2.0
%%abcx-abcm2ps-target-version 5.9.1 (29 Sep 2008)
%%abc-creator hum2abc beta
%%abcx-conversion-date 2019/02/16 20:18:27
%%abc-edited-by Jesse Rodin
%%abc-edited-by Chris Gage 03-06-2015
%%abcx-initial-encoding-date 2015/03/13/
%%humdrum-veritas 1592242642
%%humdrum-veritas-data 2533765470
%%linebreak <none>
%%barnumbers 0
L: 1/4
M: 2/1
Q: 1/2=120
V: 1 clef=treble
V: 2 clef=treble-8
V: 3 clef=bass
K: F
[V:1] z8 | 
[V:2] G8 | 
[V:3] z8 | 
[V:1] z8 | 
[V:2] F4D4 | 
[V:3] z8 | 
[V:1] G8 | 
[V:2] E8 | 
[V:3] z8 | 
[V:1] F4D4 | 
[V:2] D4d4 | 
[V:3] z8 | 
[V:1] E8 | 
[V:2] c4d2e2 | 
[V:3] z8 | 
[V:1] D8 | 
[V:2] f8 | 
[V:3] z8 | 
[V:1] A8 | 
[V:2] f4d4 | 
[V:3] z8 | 
[V:1] G4E4 | 
[V:2] e8 | 
[V:3] z8 | 
[V:1] F6G2 | 
[V:2] d8- | 
[V:3] z8 | 
[V:1] A8 | 
[V:2] d4A4- | 
[V:3] z8 | 
[V:1] F4E4- | 
[V:2] A4G4- | 
[V:3] z8 | 
[V:1] E2D2D4- | 
[V:2] G4F4 | 
[V:3] z8 | 
[V:1] D2^C2C2=B,2 | 
[V:2] E8 | 
[V:3] z8 | 
[V:1] D8- | 
[V:2] D8- | 
[V:3] z8 | 
[V:1] D4D4 | 
[V:2] D8 | 
[V:3] z8 | 
[V:1] E4F4 | 
[V:2] z4D4 | 
[V:3] z8 | 
[V:1] G4A4 | 
[V:2] E4F4 | 
[V:3] z8 | 
[V:1] (3:2:2D8E4 | 
[V:2] G8 | 
[V:3] z8 | 
[V:1] (3:2:2D4G8 | 
[V:2] B4c4 | 
[V:3] z8 | 
[V:1] (3:2:2F8G4 | 
[V:2] d8 | 
[V:3] z8 | 
[V:1] (3:2:2A8B4 | 
[V:2] c8 | 
[V:3] z8 | 
[V:1] (3A4B4G4 | 
[V:2] d4G4 | 
[V:3] z8 | 
[V:1] (3^F4G4E4 | 
[V:2] A8 | 
[V:3] z8 | 
[V:1] G8 | 
[V:2] G8 | 
[V:3] z8 | 
[V:1] z8 | 
[V:2] B6c2 | 
[V:3] G,4G,4 | 
[V:1] B8 | 
[V:2] d4e4 | 
[V:3] G,4G,4 | 
[V:1] A4A4 | 
[V:2] f8 | 
[V:3] F,4F,4 | 
[V:1] G8 | 
[V:2] [M:2/1](3:2:2d8G4 | 
[V:3] B,8 | 
[V:1] F4D4 | 
[V:2] (3:2:1D12 | 
[V:3] A,4B,4 | 
[V:1] E2F2G4 | 
[V:2] (3:2:2A8G4 | 
[V:3] C4B,4 | 
[V:1] z4A4 | 
[V:2] (3:2:2F8c4 | 
[V:3] A,4A,4 | 
[V:1] B4G4- | 
[V:2] (3:2:2d8_e4 | 
[V:3] G,8 | 
[V:1] G4d4- | 
[V:2] (3:2:2d8B4- | 
[V:3] G,4G,4 | 
[V:1] d2B2B4- | 
[V:2] (3:2:2B4d8 | 
[V:3] G,4G,4 | 
[V:1] B2A2A4- | 
[V:2] (3:2:2D8A4 | 
[V:3] F,4F,4 | 
[V:1] A2G2G2F2 | 
[V:2] (3:2:2D4G8 | 
[V:3] B,8 | 
[V:1] A8 | 
[V:2] [M:2/1]D8 | 
[V:3] A,8 | 
[V:1] z4B4 | 
[V:2] d8 | 
[V:3] G,4G,4 | 
[V:1] c4A4- | 
[V:2] c8 | 
[V:3] A,8 | 
[V:1] A4F4- | 
[V:2] z4c4 | 
[V:3] F,8 | 
[V:1] F4A4 | 
[V:2] d8 | 
[V:3] D,8 | 
[V:1] G4D4- | 
[V:2] z4A4 | 
[V:3] E,4F,4 | 
[V:1] D4E4 | 
[V:2] B6G2 | 
[V:3] G,8 | 
[V:1] F4G4 | 
[V:2] A4G4- | 
[V:3] z8 | 
[V:1] E8 | 
[V:2] G4A4- | 
[V:3] z8 | 
[V:1] C4D4 | 
[V:2] A4F4 | 
[V:3] z8 | 
[V:1] E4F4- | 
[V:2] G4A4 | 
[V:3] z8 | 
[V:1] F4G4 | 
[V:2] B8 | 
[V:3] z8 | 
[V:1] A2B2c4- | 
[V:2] c4A4- | 
[V:3] z8 | 
[V:1] c2B2A2G2 | 
[V:2] A4F4 | 
[V:3] z8 | 
[V:1] F2G2E2D2 | 
[V:2] G8 | 
[V:3] z8 | 
[V:1] [M:2/1](3:2:2F8F4 | 
[V:2] F8 | 
[V:3] z8 | 
[V:1] (3:2:2D8G4 | 
[V:2] B8 | 
[V:3] z8 | 
[V:1] (3F4G4A4 | 
[V:2] A8 | 
[V:3] z8 | 
[V:1] (3:2:2B8G4 | 
[V:2] G8 | 
[V:3] z8 | 
[V:1] (3:2:2B4A8 | 
[V:2] d8 | 
[V:3] z8 | 
[V:1] (3G4F4E4 | 
[V:2] e8 | 
[V:3] z8 | 
[V:1] [M:2/1]D8 | 
[V:2] f8 | 
[V:3] z8 | 
[V:1] z8 | 
[V:2] d6c2 | 
[V:3] z8 | 
[V:1] d8 | 
[V:2] B8 | 
[V:3] z8 | 
[V:1] c4A4 | 
[V:2] A8 | 
[V:3] z8 | 
[V:1] B4G4- | 
[V:2] z8 | 
[V:3] G,4G,4 | 
[V:1] G4B4 | 
[V:2] d8 | 
[V:3] G,4G,4 | 
[V:1] A4D4- | 
[V:2] z4f4 | 
[V:3] F,4F,4 | 
[V:1] D4F4- | 
[V:2] f8 | 
[V:3] B,8 | 
[V:1] F4G4 | 
[V:2] c4d4 | 
[V:3] A,4B,4 | 
[V:1] A2G2G4- | 
[V:2] e4d4- | 
[V:3] C4B,4 | 
[V:1] G2^F2F2E2 | 
[V:2] d4c4 | 
[V:3] A,4A,4 | 
[V:1] G8 | 
[V:2] d8 | 
[V:3] G,8 | 
[V:1] z4G4 | 
[V:2] A4G4 | 
[V:3] C4B,4 | 
[V:1] F4B4 | 
[V:2] D4z4 | 
[V:3] A,4G,4 | 
[V:1] A8 | 
[V:2] D8 | 
[V:3] F,4F,4 | 
[V:1] z4d4 | 
[V:2] G8 | 
[V:3] B,8 | 
[V:1] c4A4 | 
[V:2] z4c4 | 
[V:3] A,8 | 
[V:1] B4A2G2 | 
[V:2] d8 | 
[V:3] G,4G,4 | 
[V:1] F6E2 | 
[V:2] D8- | 
[V:3] A,8 | 
[V:1] F4D4- | 
[V:2] D8 | 
[V:3] F,8 | 
[V:1] D4F4 | 
[V:2] A8 | 
[V:3] D,8 | 
[V:1] G4A4 | 
[V:2] z8 | 
[V:3] E,4F,4 | 
[V:1] B8 | 
[V:2] z8 | 
[V:3] G,8 | 
[V:1] A4A4 | 
[V:2] d8 | 
[V:3] z8 | 
[V:1] G8 | 
[V:2] _e8 | 
[V:3] z8 | 
[V:1] F8 | 
[V:2] d8 | 
[V:3] z8 | 
[V:1] z8 | 
[V:2] G8 | 
[V:3] D8 | 
[V:1] [M:2/1](3:2:2G8D4 | 
[V:2] d8 | 
[V:3] B,8 | 
[V:1] (3:2:2E4F8 | 
[V:2] c8 | 
[V:3] A,8 | 
[V:1] (3:2:2G8B4 | 
[V:2] d8 | 
[V:3] G,8 | 
[V:1] [M:2/1](3A4B4G4 | 
[V:2] f4d4- | 
[V:3] F,4G,4 | 
[V:1] (3F5/-F4D4 | 
[V:2] d4A4 | 
[V:3] D,8 | 
[V:1] (3F4E4-E4 | 
[V:2] c8 | 
[V:3] A,8 | 
[V:1] (3D4E4G4 | 
[V:2] G8 | 
[V:3] B,8 | 
[V:1] (3F4E4D4 | 
[V:2] D8 | 
[V:3] A,4G,2F,2 | 
[V:1] (3^C4D4=B,4 | 
[V:2] G8 | 
[V:3] E,8 | 
[V:1] [M:2/1]D6E2 | 
[V:2] A8 | 
[V:3] D,8 | 
[V:1] F2G2A4- | 
[V:2] z4D4 | 
[V:3] D8 | 
[V:1] A2F2G2A2 | 
[V:2] F4E4 | 
[V:3] C8 | 
[V:1] [M:2/1]B2A2B2c2 | 
[V:2] D4G4- | 
[V:3] D8 | 
[V:1] B2A2G2A2 | 
[V:2] G4G4 | 
[V:3] G,4B,4 | 
[V:1] G2^F2G2E2 | 
[V:2] D8 | 
[V:3] A,8 | 
[V:1] [M:2/1]G4F4 | 
[V:2] d8 | 
[V:3] G,4D,4 | 
[V:1] D4E4 | 
[V:2] B8 | 
[V:3] G,8 | 
[V:1] F8 | 
[V:2] c4d4 | 
[V:3] A,4B,4- | 
[V:1] G4A4- | 
[V:2] G4F4 | 
[V:3] B,4C4 | 
[V:1] A4F4 | 
[V:2] D8 | 
[V:3] D8 | 
[V:1] G8 | 
[V:2] d8 | 
[V:3] B,4G,4- | 
[V:1] B4A4 | 
[V:2] G4A2F2- | 
[V:3] G,4C4 | 
[V:1] c2B4G2 | 
[V:2] F2G4G2 | 
[V:3] A,2G,2B,4 | 
[V:1] A4F2G2- | 
[V:2] F2D4G2 | 
[V:3] C2D4B,2 | 
[V:1] G2E2D2A2- | 
[V:2] E2z2G2F2- | 
[V:3] C4D4 | 
[V:1] A2F2G2A2 | 
[V:2] F2D2d2e2 | 
[V:3] C2D2B,2C2 | 
[V:1] B4c2A2- | 
[V:2] d4c4 | 
[V:3] G,4A,4 | 
[V:1] A2B2G2A2- | 
[V:2] d4B2A2 | 
[V:3] F,2G,4F,2 | 
[V:1] A2G2^F2E2 | 
[V:2] F2G2D4 | 
[V:3] A,2B,2A,4 | 
[V:1] G8 |]  
[V:2] d8 |]  
[V:3] G,8 |]  



